X:447
T: Der unerbittliche Hauptmann (162), S. 352
N: T0335
O: Luxemburg
S: Singendes Volk, Esch-Alzette 1937, posth.]
N: Junglinster, Vater des Verfassers
R: historische, Kriegs- und Soldatenlieder]
M: 4/4
L: 1/8
K: F
C2 | F3GA2F2 | G3AB2
B2 | A2F2c2A2 | G4z2
BB | B2d2d2d2 | c2f2A2
c2 | c3BA2G2 | F2A2c2
cc | B2d2d2d2 | c2f2A2
c2 | c3BA2G2 | F4z2

